theme-map4trip/src/main/assets/themes/mapsforgeV3/map4trip/symbols/ruins.svg

<svg enable-background="new 0 0 20 20" height="20" viewBox="0 0 20 20" width="20" xmlns="http://www.w3.org/2000/svg"><path d="m1.2 19.3v-18.6h8.3v7.1h9.3v11.5z"/><path d="m9 1.2v7.1h9.2v10.5h-9.2-1.8-5.5v-17.6zm1-1h-1-7.3-1v1 17.6 1h1 5.5 1.8 9.2 1v-1-10.5-1h-1-8.2v-6.1z" fill="#f4f4f4"/></svg>

<?xml version="1.0" encoding="utf-8"?>
<!-- Generator: Adobe Illustrator 14.0.0, SVG Export Plug-In . SVG Version: 6.00 Build 43363)  -->
<!DOCTYPE svg PUBLIC "-//W3C//DTD SVG 1.0//EN" "http://www.w3.org/TR/2001/REC-SVG-20010904/DTD/svg10.dtd">
<svg version="1.0" id="Vrstva_1" xmlns="http://www.w3.org/2000/svg" xmlns:xlink="http://www.w3.org/1999/xlink" x="0px" y="0px"
	 width="20px" height="20px" viewBox="0 0 20 20" style="enable-background:new 0 0 20 20;" xml:space="preserve">
<g>
	<polygon points="1.2,19.3 1.2,0.7 9.5,0.7 9.5,7.8 18.8,7.8 18.8,19.3 	"/>
	<path style="fill:#F4F4F4;" d="M9,1.2v7.1h9.2v10.5H9H7.2H1.7V1.2H9 M10,0.2H9H1.7h-1v1v17.6v1h1h5.5H9h9.2h1v-1V8.3v-1h-1H10V1.2
		V0.2L10,0.2z"/>
</g>
</svg>
